X:1
T:Hela'r Ysgyfarnog
T:Hunting the Hare
M:6/8
L:1/8
R:Air
Q:"Allegro"
O:Welsh
B:Edward Jones - ”A choice collection of 51 Welsh airs” (1863, p. 22)
N:Edward Jones (1752-1824) advertised himself as "harper to his late Majesty
N:King George the Fourth, when Prince of Wales."
Z:AK/Fiddler’s Companion
K:C
c2C EFG|AAc dcB|c2C EFG|AcB c3::edc edc|edc edc|
dBc dBc|d/e/fe d3|c2C EFG|A2d {c}BAB|c2C EFG|A>cB c3:|

